X: 25
T:Miss Lyall
% Nottingham Music Database
S:Lesley Dolman, via EF
M:4/4
L:1/4
K:D
P:A
[Ac]|"D"[DF][FA] [Ad][df]|"D"[f/2a/2][f/2a/2][f/2a/2][e/2g/2] [d2f2]|"D"[DF][FA] [Ad][df]|"A7"[c/2e/2][c/2e/2][c/2e/2][B/2d/2] [A2c2]|"A7"[A,C][CE] [EG][Ac]|
"A7"[c/2e/2][c/2e/2][c/2e/2][B/2d/2] [A2c2]|1"A7"[A,C][CE] [EG][Ac]|"D"[F/2A/2][F/2A/2][F/2A/2][E/2G/2] [D2F2]:|2"A7"[Ac][c/2e/2][B/2d/2] [A/2c/2][G/2A/2][F/2A/2][E/2G/2]|\
"D"[DF][DF] :|
"D"[A2d2] [Bd][Ad]|"D"[F2A2] [GB][FA]|"D7"[D2F2] [EG][DF]|"G"[B,3D3][^A,D]|"A7"[A,C][CE] [EG][Ac]|"A7"[c/2e/2][c/2e/2][c/2e/2][B/2d/2] [A2c2]|\
"A7"[A,C][CE] [EG][Ac]|"D"[F/2A/2][F/2A/2][F/2A/2][E/2G/2] [D2F2]:|
"A7"[Ac][c/2e/2][B/2d/2] [A/2c/2][G/2A/2][F/2A/2][E/2G/2]|"D"[DF][DF] :|


